X: 15
T: Green Mountain, The
Z: tziguk
S: https://thesession.org/tunes/166#setting53510
R: reel
M: 4/4
L: 1/8
K: Dmaj
dB|:A~F3 AFEF|D~F3 ABde|f2df efdB|Adfd efdB|
A~F3 AFEF|D~F3 ABde|f2df efdB|1 AFEF D2DB :|2 AFEF D3 e||
|:faaf bfaf|defd ~e2de|f2df efdB|Adfd efde|
faaf bfaf|defd ~e2de|f2df efdB|AFEF D4:|

%-------------------- TUNE SEPARATOR --------------------%

